data/playwrite-ar.svg

<svg width="108.18" height="29.106" viewBox="0 0 108.18 29.106" xmlns="http://www.w3.org/2000/svg"><path transform="translate(0 21.112) scale(.014 -.014)" d="m436 404q-19 0-28.5 11t-9.5 31 9 30.5 28 10.5q83 1 150 22t114.5 61.5 73 99.5 25.5 136q0 92-48 141.5t-130 49.5q-48 0-89.5-20t-76-58-59.5-91-38-119.5-13-144.5v-550q0-13-10-20.5t-33-7.5q-22 0-33 7.5t-11 20.5v843q-19-36-43.5-65.5t-56-54.5-71.5-48q-17-9-30-5t-24 24q-10 18-7 31t22 22q58 31 98.5 73t66 96.5 38.5 119.5q4 20 16.5 25t34.5 5q21 0 32-6.5t11-20.5v-168q31 65 74 108t96 65 112 22q79 0 138-33t92-94 33-146q0-93-33-167t-93.5-126-143.5-80-183-30z"/><path transform="translate(12.866 21.112) scale(.014 -.014)" d="m-57-17q-19 0-28 11.5t-9 26 9 26 28 11.5q31 0 60.5 15.5t58.5 44 55 68.5 50 90 44.5 107 37 120.5 28 130.5 17.5 137 6 139q0 15 13 23t30.5 8 30.5-8 13-23q0-70-8-142t-22-144-34.5-140.5-45.5-132-55-120-62.5-101.5-68-78-73-51-75.5-18zm278 0q-26 0-45 7t-30.5 20-17 32.5-5.5 43.5v806q0 97 33.5 144.5t101.5 47.5q43 0 71.5-19.5t43-58 14.5-96.5q0-19-13-28t-30.5-9-30.5 9-13 28q0 32-5 53t-14.5 31-24.5 10-26-10.5-16-35-5-66.5v-796q0-13 4-21.5t11-12.5 16-4 16.5 3 14.5 8.5 14 10.5q8 7 18 2.5t17-12.5q8-10 8.5-20t-4.5-19q-11-15-28-26t-36-16.5-39-5.5z"/><path transform="translate(18.382 21.112) scale(.014 -.014)" d="m258-17q-57 0-101 27.5t-69 83.5-25 141q0 52 9.5 96t28.5 79 46 59 62 37 77 13q32 0 66-10.5t64-27.5v5q0 15 11 22t33 7 32.5-6.5 10.5-20.5v-392q0-13 4-21.5t11-12.5 16-4q10 0 16.5 2.5t13 7.5 15.5 12q7 6 16 3.5t18-10.5q9-10 10-21t-4-19q-11-16-28-27t-36.5-17-39.5-6q-23 0-40 5t-29 15.5-18.5 25.5-9.5 34q0 1-1 4.5t-1 7.5q-23-37-49.5-57t-54.5-27.5-54-7.5zm-107 256q0-55 13-94.5t39.5-60.5 66.5-21q29 0 55.5 10t49.5 33 41 60v242q-31 19-60 25.5t-61 6.5q-26 0-48-8t-40-24-30.5-40-19-56-6.5-73z"/><path transform="translate(27.09 21.112) scale(.014 -.014)" d="m517-10q15 11 30.5 22.5t30 21.5 27.5 18 23 14q15 8 26 2t16.5-18.5 3-26.5-16.5-22q-12-7-28-18t-33.5-23.5-35-26-33.5-24.5zm-167-574q-70 0-112 40t-42 112q0 35 10 72t30 74.5 50 75 71 75.5q17 15 34 29.5t34 28.5 35 26v127q-13-21-30.5-38.5t-39-29.5-45.5-18.5-51-6.5q-58 0-97 20.5t-58.5 61-19.5 101.5v203q0 42-13 56.5t-36 14.5q-17 0-28.5-9t-18-26-8.5-40q-1-16-9-23.5t-26-7.5q-16 0-26 7t-9 33q2 43 17.5 74.5t43 49 64.5 17.5q35 0 60.5-10t42-31 24.5-52 8-73v-183q0-35 11-59t33.5-36 55.5-12q28 0 52 9t43.5 25 34.5 38 25 47v311q0 13 10.5 19.5t32.5 6.5q21 0 32-6.5t11-19.5v-816q0-61-13.5-109t-39-81-62-50-81.5-17zm6 77q33 0 56 21t35.5 61.5 12.5 99.5v182q-13-9-24.5-17.5t-22-17-20.5-17.5q-26-28-46-57t-34-58-21-58-7-58q0-25 8-43.5t23.5-28 39.5-9.5z"/><path transform="translate(36.4 21.112) scale(.014 -.014)" d="m273-17q-36 0-64.5 11.5t-48.5 34.5-30.5 57-10.5 80v203q0 42-13 56.5t-36 14.5q-17 0-28.5-9t-18-26-8.5-40q-1-16-9-23.5t-26-7.5q-16 0-26 7t-9 33q2 43 17.5 74.5t43 49 64.5 17.5q35 0 60.5-10t42-31 24.5-52 8-73v-183q0-35 8.5-59t27-36 47.5-12q20 0 42 7.5t41.5 26.5 31.5 52.5 12 84.5v259q0 12 10.5 19t32.5 7q23 0 33-7t10-19v-278q0-46 4.5-75t15-45.5 27.5-23 41-6.5q20 0 39.5 6t37 19.5 31 35.5 21.5 52.5 8 71.5q0 38-5.5 75t-17 72.5-30.5 67.5q-11 18-6 31t19 20 29 7q14 0 21-6t14-18q15-23 29.5-59.5t24.5-82.5 10-98q0-42-10-82.5t-29-75-47.5-60.5-65.5-41-83-15q-33 0-62 11t-50.5 33.5-34.5 57.5q-17-33-42-55t-55-33.5-62-11.5z"/><path transform="translate(48.832 21.112) scale(.014 -.014)" d="m-55-17q-19 0-28.5 11.5t-10 26 8.5 26 28 11.5q31 0 57 24t47 71.5 37 117.5 26 162l60-9q-9-112-27.5-195t-46.5-137.5-65.5-81.5-85.5-27zm515 0q-26 0-45 7t-31 20.5-18 34-6 46.5q0 28 2.5 64t5 74 5 72.5 2.5 59.5q0 39-9.5 53.5t-35.5 14.5q-28 0-64-10t-70-19.5-55-9.5q-18 0-34.5 19.5t-27.5 48-11 55.5q0 18 6 32t17.5 22 29.5 8q33 0 44-23t11-54q0-7 0-14t-1-15q12 0 39 11t62.5 22 71.5 11q40 0 65-15t36.5-46.5 11.5-82.5q0-23-2.5-58.5t-5-75-5-74.5-2.5-58q0-26 7.5-35.5t22.5-9.5q10 0 18 3t15.5 8.5 14.5 10.5q8 6 18 2t17-12q8-10 8.5-20t-4.5-19q-11-15-27.5-26t-36-16.5-39.5-5.5z"/><path transform="translate(56.784 21.112) scale(.014 -.014)" d="m193-17q-52 0-75.5 27t-23.5 76v403q0 13 10.5 19.5t31.5 6.5q22 0 33-6.5t11-19.5v-393q0-20 9-29t22-9q11 0 18.5 3.5t14 8.5 14.5 11q6 5 16.5 1t16.5-12q8-9 9-19t-5-18q-11-16-27.5-27t-36-17-38.5-6zm-55 686q-28 0-42.5 15.5t-14.5 46.5q0 32 14.5 48t42.5 16q27 0 41-16t14-48q1-31-13.5-46.5t-41.5-15.5z"/><path transform="translate(60.984 21.112) scale(.014 -.014)" d="m243-17q-42 0-69.5 15.5t-41 44-13.5 68.5v309h-78q-15 0-21 9t-6 31q0 23 6 31.5t21 8.5h78v204q0 13 10.5 19.5t31.5 6.5q22 0 33-6.5t11-19.5v-204h126q15 0 21.5-8.5t6.5-31.5q0-22-6.5-31t-21.5-9h-126v-299q0-34 9.5-48.5t34.5-14.5q23 0 39.5 11t34.5 27q12 11 22.5 7.5t19.5-12.5q11-10 11.5-20.5t-5.5-19.5q-17-25-38-40t-44-21.5-46-6.5z"/><path transform="translate(66.416 21.112) scale(.014 -.014)" d="m300-17q-40 0-77.5 17t-69 48-55 73.5-36.5 93-13 106.5q0 34 8 64.5t23 55 36 42 47 27 56 9.5q57 0 92.5-23t51.5-60.5 16-80.5q0-34-12.5-70t-34.5-70.5-51-66.5q-43-48-98-85.5t-116.5-58.5-126.5-21q-14 0-21 11.5t-5.5 26 12.5 26 33 11.5q46 0 94.5 18t92.5 48 75 65q22 25 37.5 51.5t23.5 53.5 8 52q0 53-20 73.5t-54 20.5q-17 0-31.5-7.5t-25.5-23-17-37.5-6-51q0-57 16.5-104.5t43.5-81.5 57.5-53 57.5-19q19 0 37 7.5t37.5 22.5 39.5 37q14 16 27 15.5t27-11.5 16.5-23-6.5-26q-25-38-58.5-60.5t-67.5-32-63-9.5z"/><path transform="translate(76.832 21.112) scale(.014 -.014)" d="m450-17q-88 0-158 35t-119 102-75 163.5-26 218.5q0 84 16 159.5t45 140 70.5 116 93.5 88 112.5 55.5 128.5 19q80 0 147-25t119.5-77 84.5-132q8-18 9-34t-21-28q-24-14-36-5t-20 27q-30 67-74 108.5t-97 61-113 19.5q-54 0-102.5-16.5t-90-47-74.5-74.5-56.5-98.5-36-119-12.5-136.5q0-103 19-183.5t56.5-137 91.5-85.5 123-29q49 0 94.5 20t86.5 60.5 74.5 101.5 59 143.5 38.5 187.5q0 14 11 20.5t33 6.5 33-6.5 11-20.5l-1-397q0-30 4.5-52t13.5-36.5 22.5-21.5 31.5-7 33 7 28.5 20 24.5 31q11 17 23.5 20.5t29.5-7.5q18-11 19.5-25t-8.5-30q-14-24-31-43t-37-31.5-41.5-19-45.5-6.5q-50 0-84.5 22t-52 67-17.5 111v124q-27-76-64.5-136t-83.5-102-98.5-64-111.5-22z"/><path transform="translate(92.834 21.112) scale(.014 -.014)" d="m929-19q-39 0-71 16.5t-61 48.5-59.5 77-66.5 103q-28 45-48.5 77.5t-35 57-27.5 46.5-26 47q-31-1-53 8.5t-33.5 24.5-11.5 31q0 22 16.5 36t44.5 14q22 0 43.5-10t36.5-25q42 9 79 26.5t66 43 50.5 57 33 69.5 11.5 81q0 57-20.5 99.5t-60 65-95.5 22.5q-51 0-95.5-19t-81.5-55-64-89-41.5-120.5-14.5-149.5v-550q0-13-10-20.5t-33-7.5q-22 0-33 7.5t-11 20.5v843q-19-36-43.5-65.5t-56-54.5-71.5-48q-17-8-30-4.5t-24 23.5q-10 18-7 31t22 22q58 31 98.5 73t66 96.5 38.5 119.5q4 20 16.5 25t34.5 5q21 0 32-6.5t11-20.5v-175q24 50 56 88t70.5 63 82.5 38 92 13q82 0 141-32.5t90.5-92 31.5-139.5q0-51-13-97t-38-84.5-60.5-70-80.5-55-99-38.5q10-19 20-36.5t22.5-38.5 30.5-49 43-67q37-58 64-97t48-62.5 36-36 27.5-16.5 23.5-4q18 0 33 7.5t28.5 21.5 27.5 31q8 10 20 10t26-10 17.5-23-4.5-24q-22-31-48-52.5t-53-32.5-50-11z"/></svg>

<?xml version="1.0" encoding="utf-8" ?>
<svg baseProfile="tiny" height="100%" version="1.2" width="100%" xmlns="http://www.w3.org/2000/svg" xmlns:ev="http://www.w3.org/2001/xml-events" xmlns:xlink="http://www.w3.org/1999/xlink"><defs /><g><path d="M436 404Q417 404 407.5 415.0Q398 426 398 446Q398 466 407.0 476.5Q416 487 435 487Q518 488 585.0 509.0Q652 530 699.5 570.5Q747 611 772.5 670.0Q798 729 798 806Q798 898 750.0 947.5Q702 997 620 997Q572 997 530.5 977.0Q489 957 454.5 919.0Q420 881 395.0 828.0Q370 775 357.0 708.5Q344 642 344 564V14Q344 1 334.0 -6.5Q324 -14 301 -14Q279 -14 268.0 -6.5Q257 1 257 14V857Q238 821 213.5 791.5Q189 762 157.5 737.0Q126 712 86 689Q69 680 56.0 684.0Q43 688 32 708Q22 726 25.0 739.0Q28 752 47 761Q105 792 145.5 834.0Q186 876 211.5 930.5Q237 985 250 1050Q254 1070 266.5 1075.0Q279 1080 301 1080Q322 1080 333.0 1073.5Q344 1067 344 1053V885Q375 950 418.0 993.0Q461 1036 514.0 1058.0Q567 1080 626 1080Q705 1080 764.0 1047.0Q823 1014 856.0 953.0Q889 892 889 807Q889 714 856.0 640.0Q823 566 762.5 514.0Q702 462 619.0 434.0Q536 406 436 404Z" transform="translate(0.0, 72) scale(0.072, -0.072)" /><path d="M-57 -17Q-76 -17 -85.0 -5.5Q-94 6 -94.0 20.5Q-94 35 -85.0 46.5Q-76 58 -57 58Q-26 58 3.5 73.5Q33 89 62.0 117.5Q91 146 117.0 186.0Q143 226 167.0 276.0Q191 326 211.5 383.0Q232 440 248.5 503.5Q265 567 276.5 634.0Q288 701 294.0 771.0Q300 841 300 910Q300 925 313.0 933.0Q326 941 343.5 941.0Q361 941 374.0 933.0Q387 925 387 910Q387 840 379.0 768.0Q371 696 357.0 624.0Q343 552 322.5 483.5Q302 415 277.0 351.5Q252 288 222.0 231.5Q192 175 159.5 130.0Q127 85 91.5 52.0Q56 19 18.5 1.0Q-19 -17 -57 -17ZM221 -17Q195 -17 176.0 -10.0Q157 -3 145.5 10.0Q134 23 128.5 42.5Q123 62 123 86V892Q123 989 156.5 1036.5Q190 1084 258 1084Q301 1084 329.5 1064.5Q358 1045 372.5 1006.5Q387 968 387 910Q387 891 374.0 882.0Q361 873 343.5 873.0Q326 873 313.0 882.0Q300 891 300 910Q300 942 295.0 963.0Q290 984 280.5 994.0Q271 1004 256 1004Q241 1004 230.0 993.5Q219 983 214.0 958.5Q209 934 209 892V96Q209 83 213.0 74.5Q217 66 224.0 62.0Q231 58 240 58Q249 58 256.5 61.0Q264 64 271.0 69.5Q278 75 285 80Q293 87 303.0 82.5Q313 78 320 70Q328 60 328.5 50.0Q329 40 324 31Q313 16 296.0 5.0Q279 -6 260.0 -11.5Q241 -17 221 -17Z" transform="translate(66.16799999999999, 72) scale(0.072, -0.072)" /><path d="M258 -17Q201 -17 157.0 10.5Q113 38 88.0 94.0Q63 150 63 235Q63 287 72.5 331.0Q82 375 101.0 410.0Q120 445 147.0 469.0Q174 493 209.0 506.0Q244 519 286 519Q318 519 352.0 508.5Q386 498 416 481V486Q416 501 427.0 508.0Q438 515 460 515Q482 515 492.5 508.5Q503 502 503 488V96Q503 83 507.0 74.5Q511 66 518.0 62.0Q525 58 534 58Q544 58 550.5 60.5Q557 63 563.5 68.0Q570 73 579 80Q586 86 595.0 83.5Q604 81 613 73Q622 63 623.0 52.0Q624 41 619 33Q608 17 591.0 6.0Q574 -5 554.5 -11.0Q535 -17 515 -17Q492 -17 475.0 -12.0Q458 -7 446.0 3.5Q434 14 427.5 29.0Q421 44 418 63Q418 64 417.0 67.5Q416 71 416 75Q393 38 366.5 18.0Q340 -2 312.0 -9.5Q284 -17 258 -17ZM151 239Q151 184 164.0 144.5Q177 105 203.5 84.0Q230 63 270 63Q299 63 325.5 73.0Q352 83 375.0 106.0Q398 129 416 166V408Q385 427 356.0 433.5Q327 440 295 440Q269 440 247.0 432.0Q225 424 207.0 408.0Q189 392 176.5 368.0Q164 344 157.5 312.0Q151 280 151 239Z" transform="translate(94.53599999999999, 72) scale(0.072, -0.072)" /><path d="M517 -10Q532 1 547.5 12.5Q563 24 577.5 34.0Q592 44 605.0 52.0Q618 60 628 66Q643 74 654.0 68.0Q665 62 670.5 49.5Q676 37 673.5 23.0Q671 9 657 1Q645 -6 629.0 -17.0Q613 -28 595.5 -40.5Q578 -53 560.5 -66.5Q543 -80 527 -91ZM350 -584Q280 -584 238.0 -544.0Q196 -504 196 -432Q196 -397 206.0 -360.0Q216 -323 236.0 -285.5Q256 -248 286.0 -210.5Q316 -173 357 -135Q374 -120 391.0 -105.5Q408 -91 425.0 -77.0Q442 -63 460 -51V76Q447 55 429.5 37.5Q412 20 390.5 8.0Q369 -4 345.0 -10.5Q321 -17 294 -17Q236 -17 197.0 3.5Q158 24 138.5 64.5Q119 105 119 166V369Q119 411 106.0 425.5Q93 440 70 440Q53 440 41.5 431.0Q30 422 23.5 405.0Q17 388 15 365Q14 349 6.0 341.5Q-2 334 -20 334Q-36 334 -46.0 341.0Q-56 348 -55 374Q-53 417 -37.5 448.5Q-22 480 5.5 497.5Q33 515 70 515Q105 515 130.5 505.0Q156 495 172.5 474.0Q189 453 197.0 422.0Q205 391 205 349V166Q205 131 216.0 107.0Q227 83 249.5 71.0Q272 59 305 59Q333 59 357.0 68.0Q381 77 400.5 93.0Q420 109 435.0 131.0Q450 153 460 178V489Q460 502 470.5 508.5Q481 515 503 515Q524 515 535.0 508.5Q546 502 546 489V-327Q546 -388 532.5 -436.0Q519 -484 493.5 -517.0Q468 -550 431.5 -567.0Q395 -584 350 -584ZM356 -507Q389 -507 412.0 -486.0Q435 -465 447.5 -424.5Q460 -384 460 -325V-143Q447 -152 435.5 -160.5Q424 -169 413.5 -177.5Q403 -186 393 -195Q367 -223 347.0 -252.0Q327 -281 313.0 -310.0Q299 -339 292.0 -368.0Q285 -397 285 -426Q285 -451 293.0 -469.5Q301 -488 316.5 -497.5Q332 -507 356 -507Z" transform="translate(139.32, 72) scale(0.072, -0.072)" /><path d="M273 -17Q237 -17 208.5 -5.5Q180 6 160.0 29.0Q140 52 129.5 86.0Q119 120 119 166V369Q119 411 106.0 425.5Q93 440 70 440Q53 440 41.5 431.0Q30 422 23.5 405.0Q17 388 15 365Q14 349 6.0 341.5Q-2 334 -20 334Q-36 334 -46.0 341.0Q-56 348 -55 374Q-53 417 -37.5 448.5Q-22 480 5.5 497.5Q33 515 70 515Q105 515 130.5 505.0Q156 495 172.5 474.0Q189 453 197.0 422.0Q205 391 205 349V166Q205 131 213.5 107.0Q222 83 240.5 71.0Q259 59 288 59Q308 59 330.0 66.5Q352 74 371.5 93.0Q391 112 403.0 145.5Q415 179 415 230V489Q415 501 425.5 508.0Q436 515 458 515Q481 515 491.0 508.0Q501 501 501 489V211Q501 165 505.5 136.0Q510 107 520.5 90.5Q531 74 548.0 67.5Q565 61 589 61Q609 61 628.5 67.0Q648 73 665.5 86.5Q683 100 696.5 122.0Q710 144 718.0 174.5Q726 205 726 246Q726 284 720.5 321.0Q715 358 703.5 393.5Q692 429 673 461Q662 479 667.0 492.0Q672 505 686.0 512.0Q700 519 715 519Q729 519 736.0 513.0Q743 507 750 495Q765 472 779.5 435.5Q794 399 804.0 353.0Q814 307 814 255Q814 213 804.0 172.5Q794 132 775.0 97.5Q756 63 727.5 37.0Q699 11 662.0 -4.0Q625 -19 579 -19Q546 -19 517.0 -8.0Q488 3 466.5 25.5Q445 48 432 83Q415 50 390.0 28.0Q365 6 335.0 -5.5Q305 -17 273 -17Z" transform="translate(187.2, 72) scale(0.072, -0.072)" /><path d="M-55 -17Q-74 -17 -83.5 -5.5Q-93 6 -93.5 20.5Q-94 35 -85.0 46.5Q-76 58 -57 58Q-26 58 0.0 82.0Q26 106 47.0 153.5Q68 201 84.0 271.0Q100 341 110 433L170 424Q161 312 142.5 229.0Q124 146 96.0 91.5Q68 37 30.5 10.0Q-7 -17 -55 -17ZM460 -17Q434 -17 415.0 -10.0Q396 -3 384.0 10.5Q372 24 366.0 44.5Q360 65 360 91Q360 119 362.5 155.0Q365 191 367.5 229.0Q370 267 372.5 301.5Q375 336 375 361Q375 400 365.5 414.5Q356 429 330 429Q302 429 266.0 419.0Q230 409 196.0 399.5Q162 390 141 390Q123 390 106.5 409.5Q90 429 79.0 457.5Q68 486 68 513Q68 531 74.0 545.0Q80 559 91.5 567.0Q103 575 121 575Q154 575 165.0 552.0Q176 529 176 498Q176 491 176.0 484.0Q176 477 175 469Q187 469 214.0 480.0Q241 491 276.5 502.0Q312 513 348 513Q388 513 413.0 498.0Q438 483 449.5 451.5Q461 420 461 369Q461 346 458.5 310.5Q456 275 453.5 235.5Q451 196 448.5 161.0Q446 126 446 103Q446 77 453.5 67.5Q461 58 476 58Q486 58 494.0 61.0Q502 64 509.5 69.5Q517 75 524 80Q532 86 542.0 82.0Q552 78 559 70Q567 60 567.5 50.0Q568 40 563 31Q552 16 535.5 5.0Q519 -6 499.5 -11.5Q480 -17 460 -17Z" transform="translate(251.13599999999997, 72) scale(0.072, -0.072)" /><path d="M193 -17Q141 -17 117.5 10.0Q94 37 94 86V489Q94 502 104.5 508.5Q115 515 136 515Q158 515 169.0 508.5Q180 502 180 489V96Q180 76 189.0 67.0Q198 58 211 58Q222 58 229.5 61.5Q237 65 243.5 70.0Q250 75 258 81Q264 86 274.5 82.0Q285 78 291 70Q299 61 300.0 51.0Q301 41 295 33Q284 17 267.5 6.0Q251 -5 231.5 -11.0Q212 -17 193 -17ZM138 669Q110 669 95.5 684.5Q81 700 81 731Q81 763 95.5 779.0Q110 795 138 795Q165 795 179.0 779.0Q193 763 193 731Q194 700 179.5 684.5Q165 669 138 669Z" transform="translate(292.032, 72) scale(0.072, -0.072)" /><path d="M243 -17Q201 -17 173.5 -1.5Q146 14 132.5 42.5Q119 71 119 111V420H41Q26 420 20.0 429.0Q14 438 14 460Q14 483 20.0 491.5Q26 500 41 500H119V704Q119 717 129.5 723.5Q140 730 161 730Q183 730 194.0 723.5Q205 717 205 704V500H331Q346 500 352.5 491.5Q359 483 359 460Q359 438 352.5 429.0Q346 420 331 420H205V121Q205 87 214.5 72.5Q224 58 249 58Q272 58 288.5 69.0Q305 80 323 96Q335 107 345.5 103.5Q356 100 365 91Q376 81 376.5 70.5Q377 60 371 51Q354 26 333.0 11.0Q312 -4 289.0 -10.5Q266 -17 243 -17Z" transform="translate(313.632, 72) scale(0.072, -0.072)" /><path d="M300 -17Q260 -17 222.5 0.0Q185 17 153.5 48.0Q122 79 98.5 121.5Q75 164 62.0 214.5Q49 265 49 321Q49 355 57.0 385.5Q65 416 80.0 440.5Q95 465 116.0 482.5Q137 500 163.0 509.5Q189 519 219 519Q276 519 311.5 496.0Q347 473 363.0 435.5Q379 398 379 355Q379 321 366.5 285.0Q354 249 332.0 214.5Q310 180 281 148Q238 100 183.0 62.5Q128 25 66.5 4.0Q5 -17 -60 -17Q-74 -17 -81.0 -5.5Q-88 6 -86.5 20.5Q-85 35 -74.0 46.5Q-63 58 -41 58Q5 58 53.5 76.0Q102 94 146.0 124.0Q190 154 221 189Q243 214 258.5 240.5Q274 267 282.0 294.0Q290 321 290 346Q290 399 270.0 419.5Q250 440 216 440Q199 440 184.5 432.5Q170 425 159.0 409.5Q148 394 142.0 372.0Q136 350 136 321Q136 264 152.5 216.5Q169 169 196.0 135.0Q223 101 253.5 82.0Q284 63 311 63Q330 63 348.0 70.5Q366 78 385.5 93.0Q405 108 425 130Q439 146 452.0 145.5Q465 145 479 134Q493 123 495.5 111.0Q498 99 489 85Q464 47 430.5 24.5Q397 2 363.0 -7.5Q329 -17 300 -17Z" transform="translate(341.568, 72) scale(0.072, -0.072)" /><path d="M450 -17Q362 -17 292.0 18.0Q222 53 173.0 120.0Q124 187 98.0 283.5Q72 380 72 502Q72 586 88.0 661.5Q104 737 133.0 801.5Q162 866 203.5 917.5Q245 969 297.0 1005.5Q349 1042 409.5 1061.0Q470 1080 538 1080Q618 1080 685.0 1055.0Q752 1030 804.5 978.0Q857 926 889 846Q897 828 898.0 812.0Q899 796 877 784Q853 770 841.0 779.0Q829 788 821 806Q791 873 747.0 914.5Q703 956 650.0 975.5Q597 995 537 995Q483 995 434.5 978.5Q386 962 344.5 931.5Q303 901 270.0 857.0Q237 813 213.5 758.5Q190 704 177.5 639.5Q165 575 165 503Q165 400 184.0 319.5Q203 239 240.5 182.5Q278 126 332.0 97.0Q386 68 455 68Q504 68 549.5 88.0Q595 108 636.0 148.5Q677 189 710.5 250.0Q744 311 769.5 393.5Q795 476 808 581Q808 595 819.0 601.5Q830 608 852 608Q874 608 885.0 601.5Q896 595 896 581L895 184Q895 154 899.5 132.0Q904 110 913.0 95.5Q922 81 935.5 74.0Q949 67 967 67Q985 67 1000.0 74.0Q1015 81 1028.5 94.0Q1042 107 1053 125Q1064 142 1076.5 145.5Q1089 149 1106 138Q1124 127 1125.5 113.0Q1127 99 1117 83Q1103 59 1086.0 40.0Q1069 21 1049.0 8.5Q1029 -4 1007.5 -10.5Q986 -17 962 -17Q912 -17 877.5 5.0Q843 27 825.5 72.0Q808 117 808 183V307Q781 231 743.5 171.0Q706 111 660.0 69.0Q614 27 561.5 5.0Q509 -17 450 -17Z" transform="translate(395.136, 72) scale(0.072, -0.072)" /><path d="M929 -19Q890 -19 858.0 -2.5Q826 14 797.0 46.0Q768 78 737.5 123.0Q707 168 671 226Q643 271 622.5 303.5Q602 336 587.5 360.5Q573 385 560.0 407.0Q547 429 534 454Q503 453 481.0 462.5Q459 472 447.5 487.0Q436 502 436 518Q436 540 452.5 554.0Q469 568 497 568Q519 568 540.5 558.0Q562 548 577 533Q619 542 656.0 559.5Q693 577 722.0 602.5Q751 628 772.5 659.5Q794 691 805.5 729.0Q817 767 817 810Q817 867 796.5 909.5Q776 952 736.5 974.5Q697 997 641 997Q590 997 545.5 978.0Q501 959 464.0 923.0Q427 887 400.0 834.0Q373 781 358.5 713.5Q344 646 344 564V14Q344 1 334.0 -6.5Q324 -14 301 -14Q279 -14 268.0 -6.5Q257 1 257 14V857Q238 821 213.5 791.5Q189 762 157.5 737.0Q126 712 86 689Q69 681 56.0 684.5Q43 688 32 708Q22 726 25.0 739.0Q28 752 47 761Q105 792 145.5 834.0Q186 876 211.5 930.5Q237 985 250 1050Q254 1070 266.5 1075.0Q279 1080 301 1080Q322 1080 333.0 1073.5Q344 1067 344 1053V878Q368 928 400.0 966.0Q432 1004 470.5 1029.0Q509 1054 553.0 1067.0Q597 1080 645 1080Q727 1080 786.0 1047.5Q845 1015 876.5 955.5Q908 896 908 816Q908 765 895.0 719.0Q882 673 857.0 634.5Q832 596 796.5 564.5Q761 533 716.0 509.5Q671 486 617 471Q627 452 637.0 434.5Q647 417 659.5 396.0Q672 375 690.0 347.0Q708 319 733 280Q770 222 797.0 183.0Q824 144 845.0 120.5Q866 97 881.0 84.5Q896 72 908.5 68.0Q921 64 932 64Q950 64 965.0 71.5Q980 79 993.5 93.0Q1007 107 1021 124Q1029 134 1041.0 134.0Q1053 134 1067 124Q1081 114 1084.5 101.0Q1088 88 1080 77Q1058 46 1032.0 24.5Q1006 3 979.0 -8.0Q952 -19 929 -19Z" transform="translate(477.432, 72) scale(0.072, -0.072)" /></g></svg>
